**kern
*staff1
!!pagebreak:original
*I"P1
=1-
*clefG2
*k[b-e-a-]
*M3/4
4b-\
4r
8g/L
8b-/J
=2
4cc\
4r
8g/L
8b-/J
=3
4dd\
4ee-\
4cc\
=4
4b-\
4g/
4cc\
=5
4b-\
4r
8g/L
8b-/J
=6
4gg\
4r
8gg\L
8gg\J
=7
4gg\
4ff\
4een\
=8
4gg\
4ff\
4dd\
*-
